lib/brands/icons/es6.svg

<svg xmlns="http://www.w3.org/2000/svg" fill="none" aria-hidden="true" viewBox="0 0 48 48"><g id="es6-Icon"><g id="Group"><path id="Vector" fill="#F26522" d="M42 6H6V42H42V6Z"/><path id="Vector_2" fill="white" d="M20.8408 28.4942H26.3473V26.9962H22.5413V24.6748H26.0503V23.1767H22.5413V21.0039H26.3473V19.5058H20.8408V28.4942ZM33.7027 26.0514C33.7027 24.2564 33.5812 23.865 31.1654 23.2847C29.6133 22.9068 29.5863 22.8798 29.5863 21.8541C29.5863 21.0713 29.7888 20.8284 30.936 20.8284C31.7187 20.8284 32.596 20.9364 33.3383 21.0983L33.5272 19.6677C32.6365 19.4653 31.6917 19.3708 30.909 19.3708C28.6281 19.3708 27.8858 20.1806 27.8858 21.8136C27.8858 23.7166 28.1827 24.135 30.3556 24.6208C31.9752 24.9717 32.0022 25.0527 32.0022 26.0514C32.0022 26.9152 31.7997 27.1716 30.5716 27.1716C29.6808 27.1716 28.871 27.0097 28.0343 26.7532L27.7374 28.0893C28.3312 28.3728 29.5189 28.6292 30.5446 28.6292C33.2033 28.6292 33.7027 27.7519 33.7027 26.0514ZM36.8338 22.7044C36.8338 21.3278 37.4951 21.0578 39.0876 21.0578C39.3711 21.0578 39.9649 21.0983 40.3563 21.1793L40.4643 19.8027C40.0594 19.7082 39.4116 19.6407 38.9122 19.6407C36.4559 19.6407 35.1873 20.3965 35.1873 22.7719V26.0514C35.1873 27.6035 35.6461 28.6292 37.9675 28.6292C40.0864 28.6292 40.7342 27.5765 40.7342 26.1729V25.5251C40.7342 23.973 40.0729 23.2982 38.4398 23.2982C37.8595 23.2982 37.3062 23.3792 36.8338 23.5411V22.7044ZM38.1834 24.7153C38.7772 24.7153 39.0876 24.9177 39.0876 25.5656V26.2269C39.0876 26.9152 38.8177 27.2121 37.9675 27.2121C37.1172 27.2121 36.8338 26.9692 36.8338 26.2269V24.9987C37.2117 24.8368 37.6975 24.7153 38.1834 24.7153Z"/></g></g></svg>

<svg xmlns="http://www.w3.org/2000/svg" fill="none" aria-hidden="true" viewBox="0 0 48 48"><path fill="#F26522" d="M42 6H6v36h36V6Z"/><path fill="#fff" d="M20.841 28.494h5.506v-1.498h-3.805v-2.321h3.509v-1.498h-3.51v-2.173h3.806v-1.498h-5.506v8.988Zm12.862-2.443c0-1.795-.122-2.186-2.537-2.766-1.552-.378-1.58-.405-1.58-1.43 0-.784.203-1.027 1.35-1.027.783 0 1.66.108 2.403.27l.189-1.43a12.269 12.269 0 0 0-2.619-.297c-2.28 0-3.023.81-3.023 2.443 0 1.903.297 2.321 2.47 2.807 1.62.35 1.646.432 1.646 1.43 0 .864-.202 1.12-1.43 1.12-.89 0-1.7-.161-2.537-.418l-.297 1.336c.593.284 1.781.54 2.807.54 2.659 0 3.158-.877 3.158-2.578Zm3.131-3.347c0-1.376.661-1.646 2.254-1.646.283 0 .877.04 1.268.121l.108-1.376a7.827 7.827 0 0 0-1.552-.162c-2.456 0-3.724.756-3.724 3.13v3.28c0 1.553.458 2.578 2.78 2.578 2.119 0 2.766-1.053 2.766-2.456v-.648c0-1.552-.66-2.227-2.294-2.227-.58 0-1.134.081-1.606.243v-.837Zm1.35 2.011c.594 0 .904.203.904.85v.662c0 .688-.27.985-1.12.985-.85 0-1.134-.243-1.134-.985v-1.228a3.538 3.538 0 0 1 1.35-.284Z"/></svg>
